X: 21502
M: C|
L: 1/8
K: D
f>ede fgaf | gfed cAcg |
fede fgaf | ecdB Addg |\
fdfg fgaf | g>fed cAeg |\
fdgb afge | fdec dDD |]


